X: 1
T: Kate Dalrymple   [G]
%T: Jinglin' Johnnie
S: Atholl
C: Trad
Z: John Chambers <jc:trillian.mit.edu>
L: 1/8
M: C|
R: Reel
K: G
|:\
"G"G2 GB "D7"A2 AB |"G"G2 GB "D7"A2 AB |\
"G"G2 gf "C"edcB | "D7"A2 d2 "G"B2 G2 :|\
"G"d2 de dcBc | "G"d2 g2 d2 Bc |
"G"d2 de dcBc | "G"d2 gf edcB ||\
"C"c2 ec "G"B2 dB | "Am"A2 AB "D7"~c2 BA |\
"G"G2 gf "C"edcB | "D7"A2 d2 "G"B2 G2 |]
